images_sukapura_svg/cmd/sc_printersetup.svg

<svg viewBox="0 0 16 16" xmlns="http://www.w3.org/2000/svg" xmlns:xlink="http://www.w3.org/1999/xlink"><linearGradient id="a" gradientUnits="userSpaceOnUse" x1="-18.557169" x2="-18.350272" y1="4.032234" y2=".245018"><stop offset="0" stop-color="#0040dd"/><stop offset="1" stop-color="#0a84ff"/></linearGradient><linearGradient id="b" gradientUnits="userSpaceOnUse" x1="10" x2="10" y1="16" y2="-2"><stop offset="0" stop-color="#f7f7f7"/><stop offset=".22222222" stop-color="#fff"/><stop offset=".83333331" stop-color="#fff"/><stop offset="1" stop-color="#f7f7f7"/></linearGradient><linearGradient id="c" gradientTransform="matrix(1 0 0 .53846154 -6 5.307692)" gradientUnits="userSpaceOnUse" x1="12" x2="12" y1="18" y2="5"><stop offset="0" stop-color="#cfcfcf"/><stop offset=".15476191" stop-color="#e7e7e7"/><stop offset=".15476191" stop-color="#fff"/><stop offset=".5" stop-color="#f3f3f3"/><stop offset=".85714287" stop-color="#f9f9f9"/><stop offset=".85714287" stop-color="#fcfcfc"/><stop offset="1" stop-color="#fff"/></linearGradient><linearGradient id="d" gradientTransform="matrix(1 0 0 .39999999 -6 6.7)" gradientUnits="userSpaceOnUse" x1="12" x2="12" y1="12" y2="18.250002"><stop offset="0" stop-color="#f8f8f8"/><stop offset="1" stop-color="#fff"/></linearGradient><linearGradient id="e" gradientUnits="userSpaceOnUse" x1="9.5" x2="9.5" y1="7" y2="10"><stop offset="0" stop-color="#fff"/><stop offset=".08333334" stop-color="#fff" stop-opacity=".055147"/><stop offset="1" stop-color="#fff" stop-opacity=".247059"/><stop offset="1" stop-color="#fff" stop-opacity=".481618"/></linearGradient>





     /&amp;amp;amp;gt;
 <rect fill="url(#a)" height="4.29661" ry="1" width="12" x="2" y="3.70339"/><path d="m5 11v4h6v-4z" fill="#fff" fill-rule="evenodd"/><path d="m4 12v3.142578c0 .474857.3825649.857422.8574219.857422h6.2851561c.474857 0 .838139-.382957.857422-.857422v-3.142578h-1v3h-6v-3z" fill="#98989d"/><path d="m4 1v4h8v-4z" fill="#fff" fill-rule="evenodd"/><path d="m13 10h2v1h-2z" fill="#fff"/><path d="m3.8574219 0c-.474857 0-.8574219.38256487-.8574219.85742188v5.14257812h1 8 1v-5.14257812c0-.47485701-.382565-.85742188-.857422-.85742188zm.1425781 1h8v4h-8z" fill="#98989d"/><path d="m1.5 5.5c-.554 0-1 .446-1 1v4c0 .554.446 1 1 1h2 1 7.5 2.5c.554 0 1-.446 1-1v-4c0-.554-.446-1-1-1h-1v2h-.5-9.5-1v-2z" fill="#98989d" stroke="#616165"/><path d="m2 6.5h.5v2h11v-2h.5c.277 0 .5.446.5 1v2c0 .554-.223 1-.5 1h-12c-.277 0-.5-.446-.5-1v-2c0-.554.223-1 .5-1z" fill="none" stroke="url(#e)" stroke-opacity=".658088"/><path d="m9 6v10h3v-4h4v-6z" fill="#fff" fill-opacity=".784314"/><g transform="translate(8)"><path d="m2 8h6v8h-6z" fill="url(#b)"/><path d="m2 7h6v9h-6z" fill="#626262" stroke-width=".774597"/><path d="m3 8h4v7h-4z" fill="url(#c)" stroke-width=".733799"/><path d="m4 9h2v2.5h-2z" fill="#dadada" stroke-width=".912871"/><path d="m4 11.5h2v2.5h-2z" fill="url(#d)" stroke-width=".632456"/></g></svg>

<?xml version="1.0" encoding="UTF-8" standalone="no"?>
<svg
   xmlns:dc="http://purl.org/dc/elements/1.1/"
   xmlns:cc="http://creativecommons.org/ns#"
   xmlns:rdf="http://www.w3.org/1999/02/22-rdf-syntax-ns#"
   xmlns:svg="http://www.w3.org/2000/svg"
   xmlns="http://www.w3.org/2000/svg"
   xmlns:xlink="http://www.w3.org/1999/xlink"
   xmlns:sodipodi="http://sodipodi.sourceforge.net/DTD/sodipodi-0.dtd"
   xmlns:inkscape="http://www.inkscape.org/namespaces/inkscape"
   viewBox="0 0 16 16"
   version="1.1"
   id="svg27"
   sodipodi:docname="sc_printersetup.svg"
   inkscape:version="0.92.3 (unknown)"><metadata
   id="metadata33">
  <rdf:RDF>
    <cc:Work
       rdf:about="">
      <dc:format>image/svg+xml</dc:format>
      <dc:type
         rdf:resource="http://purl.org/dc/dcmitype/StillImage" />
      <dc:title></dc:title>
    </cc:Work>
  </rdf:RDF>
</metadata>
<defs
   id="defs31">
  <linearGradient
     gradientTransform="translate(-25.830508,-3.5932203)"
     id="a-3"
     gradientUnits="userSpaceOnUse"
     x1="14"
     x2="13.79661"
     y1="22"
     y2="2.1355929">
    <stop
       offset="0"
       stop-color="#0040dd"
       id="stop2-6" />
    <stop
       offset="1"
       stop-color="#0a84ff"
       id="stop4-7" />
  </linearGradient>
  <linearGradient
     inkscape:collect="always"
     xlink:href="#a-3"
     id="linearGradient1425"
     gradientUnits="userSpaceOnUse"
     gradientTransform="matrix(-1,0,0,1,-29.010942,26.95119)"
     x1="-31.010942"
     y1="-4.95119"
     x2="-31.010942"
     y2="-16.951191" />
  <linearGradient
     inkscape:collect="always"
     xlink:href="#a-3"
     id="linearGradient868"
     x1="7.2733388"
     y1="7.6254539"
     x2="7.4802356"
     y2="3.838238"
     gradientUnits="userSpaceOnUse" />
  <linearGradient
     gradientTransform="translate(-1,-5)"
     id="a-2"
     gradientUnits="userSpaceOnUse"
     x1="11"
     x2="11"
     y1="21"
     y2="3">
    <stop
       offset="0"
       stop-color="#f7f7f7"
       id="stop2-2" />
    <stop
       offset=".22222222"
       stop-color="#fff"
       id="stop4-9" />
    <stop
       offset=".83333331"
       stop-color="#fff"
       id="stop6-3" />
    <stop
       offset="1"
       stop-color="#f7f7f7"
       id="stop8-6" />
  </linearGradient>
  <linearGradient
     gradientTransform="matrix(1,0,0,0.53846154,-6,5.3076923)"
     id="b"
     gradientUnits="userSpaceOnUse"
     x1="12"
     x2="12"
     y1="18"
     y2="5">
    <stop
       offset="0"
       stop-color="#cfcfcf"
       id="stop11" />
    <stop
       offset="0.15476191"
       stop-color="#e7e7e7"
       id="stop13" />
    <stop
       offset="0.15476191"
       stop-color="#fff"
       id="stop15" />
    <stop
       offset=".5"
       stop-color="#f3f3f3"
       id="stop17" />
    <stop
       offset="0.85714287"
       stop-color="#f9f9f9"
       id="stop19" />
    <stop
       offset="0.85714287"
       stop-color="#fcfcfc"
       id="stop21" />
    <stop
       offset="1"
       stop-color="#fff"
       id="stop23" />
  </linearGradient>
  <linearGradient
     gradientTransform="matrix(1,0,0,0.39999999,-6,6.6999997)"
     id="c"
     gradientUnits="userSpaceOnUse"
     x1="12"
     x2="12"
     y1="12"
     y2="18.250002">
    <stop
       offset="0"
       stop-color="#f8f8f8"
       id="stop26" />
    <stop
       offset="1"
       stop-color="#fff"
       id="stop28" />
  </linearGradient>
</defs>
<sodipodi:namedview
   pagecolor="#ffffff"
   bordercolor="#666666"
   borderopacity="1"
   objecttolerance="10"
   gridtolerance="10"
   guidetolerance="10"
   inkscape:pageopacity="0"
   inkscape:pageshadow="2"
   inkscape:window-width="1366"
   inkscape:window-height="699"
   id="namedview29"
   showgrid="true"
   inkscape:zoom="20.85965"
   inkscape:cx="13.468624"
   inkscape:cy="8.2967056"
   inkscape:window-x="0"
   inkscape:window-y="0"
   inkscape:window-maximized="1"
   inkscape:current-layer="svg27">
  <inkscape:grid
     type="xygrid"
     id="grid1626" />
</sodipodi:namedview>
<linearGradient
   id="a"
   gradientUnits="userSpaceOnUse"
   x1="9.5"
   x2="9.5"
   y1="7"
   y2="10">
  <stop
     offset="0"
     stop-color="#fff"
     id="stop2" />
  <stop
     offset=".08333334"
     stop-color="#fff"
     stop-opacity=".055147"
     id="stop4" />
  <stop
     offset="1"
     stop-color="#fff"
     stop-opacity=".247059"
     id="stop6" />
  <stop
     offset="1"
     stop-color="#fff"
     stop-opacity=".481618"
     id="stop8" />
</linearGradient>





     /&amp;amp;gt;
 <g
   id="g4764">
  <rect
     style="fill-opacity:1;fill:url(#linearGradient868)"
     id="rect11"
     y="3.70339"
     x="2"
     width="12"
     ry="1"
     height="4.29661"
     fill="#0a84ff" />
  <path
     id="path13"
     fill-rule="evenodd"
     fill="#fff"
     d="m5 11v4h6v-4z" />
  <path
     id="path15"
     fill="#98989d"
     d="m4 12v3.142578c0 .474857.3825649.857422.8574219.857422h6.2851561c.474857 0 .838139-.382957.857422-.857422v-3.142578h-1v3h-6v-3z" />
  <path
     id="path17"
     fill-rule="evenodd"
     fill="#fff"
     d="m4 1v4h8v-4z" />
  <path
     id="path19"
     fill="#fff"
     d="m13 10h2v1h-2z" />
  <path
     id="path21"
     fill="#98989d"
     d="m3.8574219 0c-.474857 0-.8574219.38256487-.8574219.85742188v5.14257812h1 8 1v-5.14257812c0-.47485701-.382565-.85742188-.857422-.85742188zm.1425781 1h8v4h-8z" />
  <path
     id="path23"
     stroke="#616165"
     fill="#98989d"
     d="m1.5 5.5c-.554 0-1 .446-1 1v4c0 .554.446 1 1 1h2 1 7.5 2.5c.554 0 1-.446 1-1v-4c0-.554-.446-1-1-1h-1v2h-.5-9.5-1v-2z" />
  <path
     id="path25"
     stroke-opacity=".658088"
     stroke="url(#a)"
     fill="none"
     d="m2 6.5h.5v2h11v-2h.5c.277 0 .5.446.5 1v2c0 .554-.223 1-.5 1h-12c-.277 0-.5-.446-.5-1v-2c0-.554.223-1 .5-1z" />
</g>
<path
   style="opacity:1;fill:#ffffff;fill-opacity:0.78431374;stroke:none;stroke-width:1;stroke-linecap:round;stroke-linejoin:round;stroke-miterlimit:4;stroke-dasharray:none;stroke-opacity:0"
   d="M 9 6 L 9 16 L 12 16 L 12 12 L 16 12 L 16 6 L 9 6 z "
   id="rect1628" />
<g
   id="g937"
   transform="translate(8)">
  <path
     id="path31"
     d="m 2,8 h 6 v 8 H 2 Z"
     style="fill:url(#a-2)"
     inkscape:connector-curvature="0"
     sodipodi:nodetypes="ccccc" />
  <path
     id="path35"
     d="m 2,7 h 6 v 9 H 2 Z"
     style="fill:#626262;stroke-width:0.77459669"
     inkscape:connector-curvature="0"
     sodipodi:nodetypes="ccccc" />
  <path
     id="path37"
     d="m 3,8 h 4 v 7 H 3 Z"
     style="fill:url(#b);stroke-width:0.7337994"
     inkscape:connector-curvature="0"
     sodipodi:nodetypes="ccccc" />
  <path
     id="path39"
     d="m 4,9 h 2 v 2.5 H 4 Z"
     style="fill:#dadada;stroke-width:0.91287094"
     inkscape:connector-curvature="0"
     sodipodi:nodetypes="ccccc" />
  <path
     id="path41"
     d="M 4,11.5 H 6 V 14 H 4 Z"
     style="fill:url(#c);stroke-width:0.63245553"
     inkscape:connector-curvature="0"
     sodipodi:nodetypes="ccccc" />
  <g
     id="g51"
     style="fill:#a2a2a7"
     transform="translate(-2,-6)" />
</g>
</svg>
